images/zhuyin/18.svg

<svg width="50" height="50" viewBox="0 0 50 50" fill="none" xmlns="http://www.w3.org/2000/svg">
<path d="M18.4375 16.8125C18.8906 16.8125 19.2656 16.9297 19.5625 17.1641C22.7344 16.8516 25.3906 16.5156 27.5312 16.1562C28.9844 15.9062 29.7656 15.7812 29.875 15.7812C30.25 15.7812 30.7734 16.0938 31.4453 16.7188C31.8984 17.125 32.125 17.4375 32.125 17.6562C32.125 17.7656 32.0156 18.1016 31.7969 18.6641C31.5781 19.1484 31.4688 19.7812 31.4688 20.5625C31.4688 22.1406 31.5156 24.1328 31.6094 26.5391C31.7031 29.3047 31.75 30.9688 31.75 31.5312C31.75 31.9844 31.5703 32.5 31.2109 33.0781C30.9766 33.4844 30.7188 33.6875 30.4375 33.6875C30.2031 33.6875 29.9219 33.4688 29.5938 33.0312C29.2812 32.6094 28.9062 32.3984 28.4688 32.3984C25.7812 32.3984 23.4062 32.5469 21.3438 32.8438C20.6406 32.9688 20.2031 33.0312 20.0312 33.0312C19.8281 33.0312 19.5156 32.875 19.0938 32.5625C18.6562 32.25 18.4375 31.9688 18.4375 31.7188L18.4844 30.6406C18.5156 29.7188 18.5312 26.7969 18.5312 21.875C18.5312 20.5625 18.375 19.4453 18.0625 18.5234C17.9375 18.0703 17.875 17.7812 17.875 17.6562C17.875 17.0938 18.0625 16.8125 18.4375 16.8125ZM20.6875 31.1562L28.8438 30.6875C29.2969 30.6875 29.5234 30.3125 29.5234 29.5625L29.7812 18.875C29.7812 18.3125 29.7031 17.9141 29.5469 17.6797C29.3906 17.4922 29.1562 17.3984 28.8438 17.3984C27.8594 17.3984 25.9453 17.6719 23.1016 18.2188C21.4297 18.5312 20.5 18.6875 20.3125 18.6875H20.2422L20.1719 18.9453C20.0156 19.6016 19.9375 21.5469 19.9375 24.7812C19.9375 28.2344 19.9922 30.1797 20.1016 30.6172C20.1953 30.9766 20.3906 31.1562 20.6875 31.1562ZM22.5625 22.3672C22.9688 22.3672 23.8281 22.9219 25.1406 24.0312C26.2969 25.0781 26.875 25.8672 26.875 26.3984C26.875 26.7422 26.7812 27.0781 26.5938 27.4062C26.4219 27.6562 26.2656 27.7812 26.125 27.7812C25.8594 27.7812 25.625 27.5859 25.4219 27.1953C24.5469 25.5391 23.7891 24.2656 23.1484 23.375L22.5625 22.4609V22.3672Z" fill="#333333"/>
<path d="M19.5625 17.1641L19.2527 17.5565L19.4109 17.6814L19.6115 17.6617L19.5625 17.1641ZM27.5312 16.1562L27.614 16.6494L27.616 16.649L27.5312 16.1562ZM31.4453 16.7188L31.1047 17.0849L31.1115 17.091L31.4453 16.7188ZM31.7969 18.6641L32.2526 18.8699L32.258 18.8577L32.2629 18.8453L31.7969 18.6641ZM31.6094 26.5391L32.1091 26.5221L32.109 26.5196L31.6094 26.5391ZM31.2109 33.0781L30.7863 32.8142L30.782 32.8211L30.7778 32.8283L31.2109 33.0781ZM29.5938 33.0312L29.192 33.3289L29.1938 33.3312L29.5938 33.0312ZM21.3438 32.8438L21.2725 32.3489L21.2644 32.35L21.2562 32.3515L21.3438 32.8438ZM19.0938 32.5625L19.3914 32.1607L19.3844 32.1556L19.0938 32.5625ZM18.4375 31.7188L17.938 31.697L17.9375 31.7079V31.7188H18.4375ZM18.4844 30.6406L18.9839 30.6623L18.9841 30.6576L18.4844 30.6406ZM18.0625 18.5234L17.5805 18.6564L17.5843 18.6703L17.589 18.684L18.0625 18.5234ZM20.6875 31.1562V31.6562H20.7019L20.7162 31.6554L20.6875 31.1562ZM28.8438 30.6875V30.1875H28.8294L28.8151 30.1883L28.8438 30.6875ZM29.5234 29.5625L29.0234 29.5504V29.5625H29.5234ZM29.7812 18.875L30.2812 18.8871V18.875H29.7812ZM29.5469 17.6797L29.9629 17.4023L29.9481 17.3801L29.931 17.3596L29.5469 17.6797ZM23.1016 18.2188L23.1934 18.7102L23.196 18.7098L23.1016 18.2188ZM20.2422 18.6875V18.1875H19.8603L19.7598 18.5559L20.2422 18.6875ZM20.1719 18.9453L19.6895 18.8138L19.6874 18.8216L19.6855 18.8295L20.1719 18.9453ZM20.1016 30.6172L19.6165 30.7385L19.6178 30.7434L20.1016 30.6172ZM22.5625 22.3672V21.8672H22.0625V22.3672H22.5625ZM25.1406 24.0312L25.4762 23.6606L25.4699 23.6549L25.4634 23.6494L25.1406 24.0312ZM26.5938 27.4062L27.0058 27.6895L27.0176 27.6724L27.0279 27.6543L26.5938 27.4062ZM25.4219 27.1953L25.8655 26.9646L25.864 26.9618L25.4219 27.1953ZM23.1484 23.375L22.7275 23.6448L22.7347 23.6561L22.7425 23.667L23.1484 23.375ZM22.5625 22.4609H22.0625V22.6074L22.1416 22.7308L22.5625 22.4609ZM18.4375 17.3125C18.8012 17.3125 19.0606 17.4048 19.2527 17.5565L19.8723 16.7716C19.4707 16.4545 18.98 16.3125 18.4375 16.3125V17.3125ZM19.6115 17.6617C22.79 17.3485 25.4584 17.0113 27.614 16.6493L27.4485 15.6632C25.3229 16.02 22.6788 16.3546 19.5135 16.6665L19.6115 17.6617ZM27.616 16.649C28.342 16.5241 28.8983 16.4308 29.286 16.3687C29.4802 16.3377 29.6298 16.3148 29.7365 16.2998C29.8614 16.2823 29.8907 16.2812 29.875 16.2812V15.2812C29.8047 15.2812 29.6952 15.2958 29.5975 15.3095C29.4815 15.3258 29.3245 15.3498 29.128 15.3813C28.7345 15.4442 28.1736 15.5384 27.4465 15.6635L27.616 16.649ZM29.875 16.2812C29.9323 16.2812 30.0647 16.3089 30.2925 16.4449C30.513 16.5765 30.7831 16.7856 31.1048 17.0848L31.7859 16.3527C31.4357 16.0269 31.1081 15.7672 30.8051 15.5863C30.5095 15.4098 30.1927 15.2812 29.875 15.2812V16.2812ZM31.1115 17.091C31.3249 17.2824 31.4662 17.4353 31.5503 17.5513C31.6435 17.6799 31.625 17.7063 31.625 17.6562H32.625C32.625 17.3875 32.4932 17.1482 32.3599 16.9643C32.2174 16.7679 32.0188 16.5614 31.7791 16.3465L31.1115 17.091ZM31.625 17.6562C31.625 17.6197 31.6311 17.612 31.6189 17.6615C31.6093 17.7006 31.5929 17.7576 31.5675 17.8354C31.5171 17.9905 31.4389 18.2051 31.3309 18.4828L32.2629 18.8453C32.3736 18.5605 32.4595 18.3259 32.5184 18.145C32.5478 18.0549 32.5723 17.9722 32.5901 17.9C32.6052 17.8382 32.625 17.7474 32.625 17.6562H31.625ZM31.3412 18.4583C31.0828 19.0303 30.9688 19.7409 30.9688 20.5625H31.9688C31.9688 19.8216 32.0734 19.2665 32.2526 18.8699L31.3412 18.4583ZM30.9688 20.5625C30.9688 22.1495 31.0159 24.1488 31.1098 26.5585L32.109 26.5196C32.0154 24.1168 31.9688 22.1317 31.9688 20.5625H30.9688ZM31.1097 26.556C31.2036 29.3259 31.25 30.9794 31.25 31.5312H32.25C32.25 30.9581 32.2027 29.2834 32.1091 26.5221L31.1097 26.556ZM31.25 31.5312C31.25 31.8554 31.1195 32.2782 30.7863 32.8142L31.6356 33.3421C32.0212 32.7218 32.25 32.1134 32.25 31.5312H31.25ZM30.7778 32.8283C30.5709 33.187 30.4436 33.1875 30.4375 33.1875V34.1875C30.9939 34.1875 31.3822 33.7817 31.644 33.328L30.7778 32.8283ZM30.4375 33.1875C30.4762 33.1875 30.454 33.2036 30.3578 33.1288C30.2656 33.0571 30.1437 32.9312 29.9937 32.7313L29.1938 33.3312C29.3719 33.5688 29.5547 33.771 29.7438 33.9181C29.9288 34.062 30.1645 34.1875 30.4375 34.1875V33.1875ZM29.9955 32.7336C29.61 32.2131 29.0973 31.8984 28.4688 31.8984V32.8984C28.7152 32.8984 28.9525 33.0056 29.192 33.3289L29.9955 32.7336ZM28.4688 31.8984C25.7639 31.8984 23.3642 32.0478 21.2725 32.3489L21.415 33.3386C23.4483 33.046 25.7986 32.8984 28.4688 32.8984V31.8984ZM21.2562 32.3515C20.5356 32.4796 20.1487 32.5312 20.0312 32.5312V33.5312C20.2575 33.5312 20.7456 33.4579 21.4313 33.336L21.2562 32.3515ZM20.0312 32.5312C20.0444 32.5312 19.9982 32.5319 19.8681 32.4668C19.7473 32.4064 19.5894 32.3074 19.3914 32.1607L18.7961 32.9643C19.02 33.1301 19.2293 33.2655 19.4209 33.3613C19.6033 33.4525 19.815 33.5312 20.0312 33.5312V32.5312ZM19.3844 32.1556C19.1871 32.0147 19.065 31.8986 18.9962 31.8102C18.9269 31.721 18.9375 31.6939 18.9375 31.7188H17.9375C17.9375 31.9936 18.0575 32.2321 18.2069 32.4242C18.3569 32.6171 18.5629 32.7978 18.8031 32.9694L19.3844 32.1556ZM18.937 31.7405L18.9839 30.6623L17.9848 30.6189L17.938 31.697L18.937 31.7405ZM18.9841 30.6576C19.0157 29.725 19.0312 26.7921 19.0312 21.875H18.0312C18.0312 26.8016 18.0155 29.7125 17.9847 30.6237L18.9841 30.6576ZM19.0312 21.875C19.0312 20.5257 18.871 19.351 18.536 18.3629L17.589 18.684C17.879 19.5396 18.0312 20.5993 18.0312 21.875H19.0312ZM18.5445 18.3905C18.4832 18.1684 18.4391 17.9928 18.4106 17.8611C18.3964 17.7953 18.3869 17.7442 18.3811 17.7061C18.3749 17.665 18.375 17.6515 18.375 17.6562H17.375C17.375 17.7774 17.4018 17.9274 17.4332 18.0725C17.4672 18.2299 17.5168 18.4254 17.5805 18.6564L18.5445 18.3905ZM18.375 17.6562C18.375 17.4148 18.4181 17.3211 18.4317 17.3008C18.434 17.2973 18.4283 17.3058 18.415 17.3124C18.4038 17.3181 18.4065 17.3125 18.4375 17.3125V16.3125C18.1043 16.3125 17.7974 16.4494 17.5996 16.7461C17.4256 17.007 17.375 17.3352 17.375 17.6562H18.375ZM20.7162 31.6554L28.8724 31.1867L28.8151 30.1883L20.6588 30.6571L20.7162 31.6554ZM28.8438 31.1875C29.2381 31.1875 29.5739 31.0083 29.7815 30.6648C29.9646 30.3618 30.0234 29.9715 30.0234 29.5625H29.0234C29.0234 29.9035 28.969 30.0757 28.9256 30.1477C28.9164 30.1629 28.9093 30.1709 28.9056 30.1745C28.9022 30.1779 28.9003 30.179 28.8996 30.1794C28.8988 30.1798 28.8956 30.1815 28.888 30.1833C28.8801 30.1852 28.8659 30.1875 28.8438 30.1875V31.1875ZM30.0233 29.5746L30.2811 18.8871L29.2814 18.8629L29.0236 29.5504L30.0233 29.5746ZM30.2812 18.875C30.2812 18.2952 30.2062 17.7673 29.9629 17.4023L29.1308 17.957C29.2 18.0608 29.2812 18.3298 29.2812 18.875H30.2812ZM29.931 17.3596C29.6543 17.0276 29.2597 16.8984 28.8438 16.8984V17.8984C29.0528 17.8984 29.1269 17.9568 29.1628 17.9998L29.931 17.3596ZM28.8438 16.8984C27.804 16.8984 25.8436 17.1823 23.0071 17.7277L23.196 18.7098C26.047 18.1615 27.9147 17.8984 28.8438 17.8984V16.8984ZM23.0097 17.7273C22.1748 17.8833 21.5279 17.9999 21.0675 18.0772C20.8371 18.116 20.6561 18.1444 20.523 18.163C20.4564 18.1723 20.4043 18.1788 20.3655 18.1829C20.3227 18.1874 20.3089 18.1875 20.3125 18.1875V19.1875C20.4 19.1875 20.5278 19.1721 20.6615 19.1534C20.8077 19.1329 20.9989 19.1028 21.2333 19.0634C21.7026 18.9845 22.3565 18.8667 23.1934 18.7102L23.0097 17.7273ZM20.3125 18.1875H20.2422V19.1875H20.3125V18.1875ZM19.7598 18.5559L19.6895 18.8138L20.6543 19.0769L20.7246 18.8191L19.7598 18.5559ZM19.6855 18.8295C19.5943 19.2123 19.5353 19.9106 19.4965 20.8764C19.457 21.8587 19.4375 23.1611 19.4375 24.7812H20.4375C20.4375 23.167 20.457 21.8796 20.4957 20.9165C20.535 19.937 20.5932 19.3346 20.6583 19.0611L19.6855 18.8295ZM19.4375 24.7812C19.4375 26.5095 19.4512 27.8645 19.4787 28.8441C19.4925 29.3336 19.5098 29.7332 19.531 30.0407C19.5512 30.3352 19.577 30.5805 19.6165 30.7385L20.5866 30.4959C20.5714 30.4351 20.5493 30.2732 20.5286 29.972C20.5088 29.6838 20.4919 29.2992 20.4783 28.816C20.4512 27.8503 20.4375 26.5061 20.4375 24.7812H19.4375ZM19.6178 30.7434C19.6796 30.9803 19.7886 31.2135 19.9798 31.3895C20.181 31.5745 20.4297 31.6562 20.6875 31.6562V30.6562C20.6756 30.6562 20.6675 30.6554 20.6626 30.6545C20.6577 30.6537 20.6555 30.6529 20.6554 30.6529C20.6552 30.6528 20.6559 30.6531 20.6569 30.6537C20.6579 30.6543 20.6579 30.6545 20.6569 30.6535C20.6528 30.6497 20.6173 30.6134 20.5854 30.491L19.6178 30.7434ZM22.5625 22.8672C22.5583 22.8672 22.5716 22.8668 22.6071 22.8763C22.6418 22.8855 22.6894 22.9019 22.7514 22.9291C22.8766 22.984 23.0386 23.0729 23.2406 23.2033C23.6442 23.4639 24.1686 23.8643 24.8179 24.4131L25.4634 23.6494C24.8002 23.0888 24.2386 22.6572 23.7829 22.3631C23.5552 22.2161 23.3441 22.0971 23.1529 22.0132C22.9696 21.9329 22.7653 21.8672 22.5625 21.8672V22.8672ZM24.805 24.4019C25.371 24.9143 25.7772 25.3476 26.0381 25.7037C26.3102 26.0751 26.375 26.2967 26.375 26.3984H27.375C27.375 25.9689 27.1507 25.5303 26.8447 25.1127C26.5275 24.6797 26.0665 24.1951 25.4762 23.6606L24.805 24.4019ZM26.375 26.3984C26.375 26.6467 26.3084 26.8979 26.1596 27.1582L27.0279 27.6543C27.2541 27.2584 27.375 26.8377 27.375 26.3984H26.375ZM26.1817 27.123C26.1108 27.2261 26.0608 27.2767 26.0353 27.2971C26.0092 27.318 26.0424 27.2812 26.125 27.2812V28.2812C26.3483 28.2812 26.5299 28.182 26.66 28.0779C26.7908 27.9733 26.9048 27.8364 27.0058 27.6895L26.1817 27.123ZM26.125 27.2812C26.1215 27.2812 26.1187 27.2809 26.1136 27.2789C26.1075 27.2766 26.0929 27.2697 26.0701 27.2507C26.0211 27.2099 25.9489 27.1251 25.8655 26.9646L24.9783 27.426C25.2074 27.8667 25.5712 28.2812 26.125 28.2812V27.2812ZM25.864 26.9618C24.9846 25.2972 24.2145 24.0008 23.5543 23.083L22.7425 23.667C23.3637 24.5305 24.1091 25.7809 24.9798 27.4289L25.864 26.9618ZM23.5694 23.1052L22.9834 22.1911L22.1416 22.7308L22.7275 23.6448L23.5694 23.1052ZM23.0625 22.4609V22.3672H22.0625V22.4609H23.0625Z" fill="#333333"/>
</svg>

<svg xmlns="http://www.w3.org/2000/svg" width="50" height="50" fill="none"><path fill="#333" d="M18.438 16.813c.453 0 .828.117 1.125.351 3.171-.312 5.828-.648 7.968-1.008 1.453-.25 2.235-.375 2.344-.375.375 0 .898.313 1.57.938.453.406.68.718.68.937 0 .11-.11.446-.328 1.008-.219.484-.328 1.117-.328 1.898 0 1.579.047 3.57.14 5.977.094 2.766.141 4.43.141 4.992 0 .453-.18.969-.54 1.547-.233.406-.491.61-.773.61-.234 0-.515-.22-.843-.657-.313-.422-.688-.633-1.125-.633-2.688 0-5.063.149-7.125.446-.703.125-1.14.187-1.313.187-.203 0-.515-.156-.937-.468-.438-.313-.657-.594-.657-.844l.047-1.078c.032-.922.047-3.844.047-8.766 0-1.313-.156-2.43-.468-3.352-.125-.453-.188-.742-.188-.867 0-.562.188-.843.563-.843Zm2.25 14.343 8.156-.468c.453 0 .68-.375.68-1.125l.257-10.688c0-.563-.078-.96-.234-1.195-.156-.188-.39-.282-.703-.282-.985 0-2.899.274-5.742.82-1.672.313-2.602.47-2.79.47h-.07l-.07.257c-.156.657-.235 2.602-.235 5.836 0 3.453.055 5.399.165 5.836.093.36.289.54.585.54Zm1.875-8.789c.406 0 1.265.555 2.578 1.664 1.156 1.047 1.734 1.836 1.734 2.367 0 .344-.094.68-.281 1.008-.172.25-.328.375-.469.375-.266 0-.5-.195-.703-.586-.875-1.656-1.633-2.93-2.274-3.82l-.585-.914v-.094Z"/><path fill="#333" d="m19.563 17.164-.31.392.158.125.2-.02-.049-.497Zm7.968-1.008.083.493h.002l-.085-.493Zm3.914.563-.34.366.006.006.334-.372Zm.352 1.945.456.206.005-.012.005-.013-.466-.18Zm-.188 7.875.5-.017v-.002l-.5.02Zm-.398 6.54-.425-.265-.004.007-.004.007.433.25Zm-1.617-.048-.402.298.002.002.4-.3Zm-8.25-.187-.072-.495-.008.001-.008.002.088.492Zm-2.25-.282.297-.401-.007-.005-.29.407Zm-.657-.843-.499-.022v.022h.5Zm.047-1.078.5.021v-.004l-.5-.017Zm-.422-12.118-.482.133.004.014.005.014.474-.16Zm2.625 12.633v.5H20.716l-.029-.5Zm8.157-.468v-.5H28.815l.029.5Zm.68-1.125-.5-.013v.012h.5Zm.257-10.688.5.012v-.012h-.5Zm-.234-1.195.416-.278-.015-.022-.017-.02-.384.32Zm-6.445.539.091.491h.003l-.094-.491Zm-2.86.468v-.5h-.382l-.1.369.482.131Zm-.07.258-.483-.131-.002.008-.002.008.487.115Zm-.07 11.672-.486.121.002.005.484-.126Zm2.46-8.25v-.5h-.5v.5h.5Zm2.579 1.664.335-.37-.006-.006-.007-.006-.322.382Zm1.453 3.375.412.284.012-.018.01-.018-.434-.248Zm-1.172-.21.444-.231-.002-.003-.442.233Zm-2.274-3.821-.42.27.007.011.008.011.405-.292Zm-.585-.914h-.5v.146l.079.124.42-.27Zm-4.125-5.148c.363 0 .623.092.815.244l.62-.785c-.402-.317-.893-.46-1.436-.46v1Zm1.174.349c3.178-.313 5.846-.65 8.002-1.013l-.166-.986c-2.125.357-4.77.692-7.934 1.003l.098.996Zm8.004-1.013c.726-.125 1.282-.218 1.67-.28l.45-.07c.125-.017.155-.018.139-.018v-1c-.07 0-.18.015-.277.028-.116.017-.273.04-.47.072-.393.063-.954.157-1.681.283l.169.985Zm2.259-.368c.057 0 .19.028.418.164.22.131.49.34.812.64l.68-.732a6.049 6.049 0 0 0-.98-.767c-.296-.176-.612-.305-.93-.305v1Zm1.236.81c.214.191.355.344.44.46.093.129.074.155.074.105h1c0-.268-.132-.508-.265-.692a4.112 4.112 0 0 0-.58-.617l-.669.744Zm.514.565c0-.036.006-.044-.006.006-.01.039-.026.096-.052.173-.05.155-.128.37-.236.648l.932.362c.11-.284.197-.52.255-.7.03-.09.054-.173.072-.245.015-.062.035-.153.035-.244h-1Zm-.284.802c-.258.572-.372 1.283-.372 2.105h1c0-.741.104-1.296.284-1.693l-.912-.412Zm-.372 2.105c0 1.587.047 3.586.14 5.995l1-.038a158.27 158.27 0 0 1-.14-5.957h-1Zm.14 5.993c.095 2.77.141 4.423.141 4.975h1c0-.573-.047-2.248-.14-5.009l-1 .034Zm.141 4.975c0 .324-.13.747-.464 1.283l.85.528c.385-.62.614-1.229.614-1.81h-1Zm-.472 1.297c-.207.359-.334.36-.34.36v1c.556 0 .944-.406 1.206-.86l-.866-.5Zm-.34.36c.038 0 .016.016-.08-.06a2.136 2.136 0 0 1-.364-.397l-.8.6c.178.238.36.44.55.587.185.144.42.27.694.27v-1Zm-.442-.454c-.386-.52-.899-.836-1.527-.836v1c.246 0 .483.108.723.43l.803-.594Zm-1.527-.836c-2.705 0-5.105.15-7.197.45l.143.99c2.033-.292 4.384-.44 7.054-.44v-1Zm-7.213.454c-.72.128-1.107.18-1.225.18v1c.227 0 .715-.074 1.4-.196l-.175-.984Zm-1.225.18c.013 0-.033 0-.163-.065-.12-.06-.279-.16-.477-.306l-.595.803c.224.166.433.302.625.397.182.092.394.17.61.17v-1Zm-.647-.376a1.888 1.888 0 0 1-.388-.346c-.07-.089-.058-.116-.058-.091h-1c0 .275.12.513.269.705.15.193.356.374.596.545l.581-.813Zm-.447-.415.047-1.079-1-.043-.046 1.078.999.044Zm.047-1.083c.032-.933.047-3.866.047-8.783h-1c0 4.927-.015 7.837-.046 8.749l1 .034Zm.047-8.783c0-1.35-.16-2.524-.495-3.512l-.947.321c.29.856.442 1.915.442 3.191h1Zm-.486-3.485a10.143 10.143 0 0 1-.134-.529 2.65 2.65 0 0 1-.03-.155c-.006-.041-.006-.055-.006-.05h-1c0 .121.027.271.058.417.034.157.084.352.148.583l.963-.265Zm-.17-.734c0-.241.043-.335.057-.355.002-.004-.004.005-.017.011-.011.006-.008 0 .023 0v-1a.972.972 0 0 0-.838.434c-.174.261-.225.59-.225.91h1Zm2.341 14 8.156-.47-.057-.998-8.156.47.057.997Zm8.128-.468c.394 0 .73-.18.938-.523.183-.303.241-.694.241-1.102h-1c0 .34-.054.513-.097.585a.136.136 0 0 1-.02.026.028.028 0 0 1-.006.005c-.001 0-.004.003-.012.004a.193.193 0 0 1-.044.005v1Zm1.18-1.613.257-10.688-1-.024-.257 10.687 1 .025Zm.257-10.7c0-.58-.075-1.108-.318-1.473l-.832.555c.069.104.15.373.15.918h1Zm-.35-1.515c-.277-.332-.671-.462-1.087-.462v1c.209 0 .283.059.319.102l.768-.64Zm-1.087-.462c-1.04 0-3 .284-5.837.83l.189.982c2.851-.549 4.719-.812 5.648-.812v-1Zm-5.834.83c-.835.155-1.482.272-1.943.35a20.68 20.68 0 0 1-.701.105l-.053.005v1c.087 0 .215-.016.349-.035.146-.02.337-.05.571-.09.47-.078 1.123-.196 1.96-.353l-.183-.983Zm-2.698.46h-.07v1h.07v-1Zm-.552.368-.07.258.964.263.07-.258-.964-.263Zm-.075.273c-.09.383-.15 1.082-.188 2.047-.04.983-.06 2.285-.06 3.905h1c0-1.614.02-2.901.059-3.864.039-.98.097-1.582.162-1.856l-.973-.232Zm-.247 5.952c0 1.729.013 3.084.04 4.063.014.49.032.89.053 1.197.02.294.046.54.085.697l.97-.242a3.905 3.905 0 0 1-.057-.524c-.02-.288-.037-.673-.05-1.156-.028-.966-.041-2.31-.041-4.035h-1Zm.18 5.962c.062.237.17.47.362.647.201.184.45.266.707.266v-1c-.011 0-.02 0-.024-.002l-.008-.001h.002c0 .001 0 .002 0 0-.004-.003-.04-.04-.072-.162l-.967.252Zm2.945-7.876c-.005 0 .009 0 .044.01.035.009.082.025.144.052.126.055.288.144.49.274.403.26.928.661 1.577 1.21l.645-.764c-.663-.56-1.224-.992-1.68-1.286a4.611 4.611 0 0 0-.63-.35 1.508 1.508 0 0 0-.59-.146v1Zm2.242 1.535c.566.512.972.946 1.233 1.302.272.371.337.593.337.694h1c0-.43-.224-.868-.53-1.285-.317-.433-.778-.918-1.369-1.452l-.671.74Zm1.57 1.996c0 .249-.067.5-.215.76l.868.496c.226-.396.347-.816.347-1.256h-1Zm-.193.725a.85.85 0 0 1-.147.174c-.026.021.007-.016.09-.016v1c.223 0 .405-.099.535-.203.13-.105.245-.242.346-.389l-.824-.566Zm-.057.158c-.003 0-.006 0-.011-.002a.163.163 0 0 1-.044-.028.937.937 0 0 1-.204-.286l-.888.461c.23.44.593.855 1.147.855v-1Zm-.261-.32c-.88-1.664-1.65-2.96-2.31-3.878l-.811.584c.62.863 1.366 2.114 2.237 3.762l.884-.467Zm-2.295-3.856-.586-.914-.841.54.585.914.842-.54Zm-.506-.644v-.094h-1v.094h1Z"/></svg>
